flaticon/stationery/highlighter-2.svg

<svg xmlns="http://www.w3.org/2000/svg" width="32" height="32" viewBox="0 0 24 24">
    <path d="M 23.359375 16.242188 L 12.5625 5.445312 L 7.757812 0.636719 C 6.835938 -0.285156 5.441406 -0.136719 4.664062 0.636719 L 0.644531 4.65625 C -0.347656 5.652344 -0.0703125 7.035156 0.644531 7.753906 L 16.246094 23.355469 C 16.960938 24.070312 18.351562 24.347656 19.34375 23.355469 L 23.359375 19.339844 C 24.214844 18.484375 24.214844 17.09375 23.359375 16.242188 Z M 1.367188 7.03125 C 1.066406 6.746094 0.777344 5.96875 1.367188 5.378906 L 5.386719 1.359375 C 5.867188 0.878906 6.59375 0.917969 7.035156 1.359375 L 11.480469 5.804688 L 10.207031 7.082031 L 6.773438 3.648438 C 6.574219 3.445312 6.25 3.445312 6.050781 3.648438 L 3.652344 6.042969 C 3.558594 6.140625 3.503906 6.269531 3.503906 6.40625 C 3.503906 6.539062 3.558594 6.671875 3.652344 6.765625 L 7.085938 10.199219 L 5.8125 11.476562 Z M 4.738281 6.40625 L 6.410156 4.730469 L 11.757812 10.078125 C 12.160156 10.476562 12.164062 11.117188 11.757812 11.519531 L 11.527344 11.75 C 11.140625 12.136719 10.46875 12.136719 10.082031 11.75 Z M 22.636719 18.617188 L 18.621094 22.632812 C 18.179688 23.074219 17.410156 23.074219 16.96875 22.632812 L 6.535156 12.195312 L 7.808594 10.921875 L 9.359375 12.472656 C 10.246094 13.355469 11.535156 13.1875 12.25 12.472656 L 12.480469 12.242188 C 13.253906 11.46875 13.308594 10.183594 12.480469 9.355469 L 10.929688 7.804688 L 12.203125 6.527344 L 22.636719 16.964844 C 23.09375 17.417969 23.09375 18.160156 22.636719 18.617188 Z M 22.636719 18.617188"/>
</svg>

<svg xmlns="http://www.w3.org/2000/svg" width="32" height="32" viewBox="0 0 24 24">
    <path d="M23.36 16.242L12.562 5.445 7.758.637c-.922-.922-2.317-.774-3.094 0l-4.02 4.02c-.992.995-.714 2.378 0 3.097l15.602 15.601c.715.715 2.106.993 3.098 0l4.015-4.015a2.19 2.19 0 0 0 0-3.098zM1.366 7.032c-.3-.286-.59-1.063 0-1.653l4.02-4.02a1.155 1.155 0 0 1 1.648 0l4.445 4.446-1.273 1.277-3.434-3.434a.505.505 0 0 0-.722 0L3.652 6.043a.515.515 0 0 0 0 .723l3.434 3.433-1.274 1.278zm3.371-.626L6.41 4.73l5.348 5.348c.402.399.406 1.04 0 1.442l-.23.23a1.045 1.045 0 0 1-1.446 0zm17.899 12.211l-4.016 4.016a1.196 1.196 0 0 1-1.652 0L6.535 12.195l1.274-1.273 1.55 1.55c.887.883 2.176.716 2.891 0l.23-.23a2.034 2.034 0 0 0 0-2.887l-1.55-1.55 1.273-1.278 10.434 10.438a1.167 1.167 0 0 1 0 1.652zm0 0"/>
</svg>
